images/g-design-skill.svg

<svg viewBox="0 0 200 200" xmlns="http://www.w3.org/2000/svg"><g fill="#ffdb57"><path d="m166.05 25-14.05 10.49-14.16 33h-11.42l-4.42-9.67h2.92a9.66 9.66 0 0 0 9.69-9.64v-9.74h4.85v-14.54h-14.59v14.54h4.85v9.74a4.81 4.81 0 0 1 -4.85 4.82h-5.16l-6.19-13.39 7.42-3.7-24.29-10.43-5.71 20a21.8 21.8 0 1 0 -33.94 18.38v3.65h-5.82l-.38 2a54.54 54.54 0 0 0 -.33 18.65l-16.47 29.43 18.25 4.17v30.53h24.17v21.81h58.14v-33.76a63.14 63.14 0 0 0 26.63-51.86v-8.84a55.31 55.31 0 0 0 -.93-10.12l-.35-2h-4.76l10.9-26.12zm-36.33 9.69v-4.89h4.84v4.84zm-8.64 33.87h-9.18l-4.41-9.69h9.12zm-21.28-35.46 9.63 4.13-2.28 1.11 7.23 15.66h-9.09l-5.9-13-2.17 1.09zm6.78 35.41h-10.78v-4.8a4.9 4.9 0 0 1 4.85-4.89h1.52zm-9.52-20.89 2.94 6.47a9.66 9.66 0 0 0 -9 9.62v4.8h-9.73v-3.65a21.92 21.92 0 0 0 9.24-14zm-44.86-.87a17 17 0 1 1 25.43 14.67l-1.21.7v6.39h-4.84v-14.94a7.27 7.27 0 1 0 -4.85 0v14.94h-4.84v-6.39l-1.21-.7a17 17 0 0 1 -8.48-14.67zm17 2.43a2.43 2.43 0 1 1 2.43-2.43 2.43 2.43 0 0 1 -2.43 2.43zm86.68 24.17a51.23 51.23 0 0 1 .53 7.27v8.85a59 59 0 0 1 -25.58 48.61l-1.06.73v31.44h-48.5v-21.8h-24.27v-29.55l-15.7-3.58 14.22-25.32-.13-.86a49.52 49.52 0 0 1 -.17-15.82zm-5.93-4.84h-6.82l12.07-28.16 5.32 2.65zm11.26-30.51-2.68-1.33 2.68-2zm0 0"/><path d="m74 87.89c-4 0-7.27-2.42-7.27-7.27h-4.84a12.11 12.11 0 0 0 24.22 0h-4.84c0 4.85-3.26 7.27-7.27 7.27zm0 0"/></g></svg>

<svg id="Layer_1" data-name="Layer 1" xmlns="http://www.w3.org/2000/svg" viewBox="0 0 200 200"><defs><style>.cls-1{fill:#ffdb57;}</style></defs><title>Artboard 1skills-icons</title><path class="cls-1" d="M166.05,25,152,35.49l-14.16,33H126.42L122,58.82h2.92a9.66,9.66,0,0,0,9.69-9.64V39.44h4.85V24.9H124.87V39.44h4.85v9.74A4.81,4.81,0,0,1,124.87,54h-5.16l-6.19-13.39,7.42-3.7L96.65,26.48l-5.71,20A21.8,21.8,0,1,0,57,64.86v3.65H51.18l-.38,2a54.54,54.54,0,0,0-.33,18.65L34,118.59l18.25,4.17v30.53H76.42V175.1h58.14V141.34a63.14,63.14,0,0,0,26.63-51.86V80.64a55.31,55.31,0,0,0-.93-10.12l-.35-2h-4.76l10.9-26.12Zm-36.33,9.69V29.8h4.84v4.84Zm-8.64,33.87H111.9l-4.41-9.69h9.12ZM99.8,33.1l9.63,4.13-2.28,1.11L114.38,54h-9.09L99.39,41l-2.17,1.09Zm6.78,35.41H95.8v-4.8a4.9,4.9,0,0,1,4.85-4.89h1.52ZM97.06,47.62,100,54.09a9.66,9.66,0,0,0-9,9.62v4.8H81.27V64.86a21.92,21.92,0,0,0,9.24-14ZM52.2,46.75A17,17,0,1,1,77.63,61.42l-1.21.7v6.39H71.58V53.57a7.27,7.27,0,1,0-4.85,0V68.51H61.89V62.12l-1.21-.7A17,17,0,0,1,52.2,46.75Zm17,2.43a2.43,2.43,0,1,1,2.43-2.43,2.43,2.43,0,0,1-2.43,2.43Zm86.68,24.17a51.23,51.23,0,0,1,.53,7.27v8.85a59,59,0,0,1-25.58,48.61l-1.06.73v31.44H81.27v-21.8H57V118.9l-15.7-3.58L55.52,90l-.13-.86a49.52,49.52,0,0,1-.17-15.82Zm-5.93-4.84h-6.82l12.07-28.16L160.52,43ZM161.21,38l-2.68-1.33,2.68-2Zm0,0"/><path class="cls-1" d="M74,87.89c-4,0-7.27-2.42-7.27-7.27H61.89a12.11,12.11,0,0,0,24.22,0H81.27c0,4.85-3.26,7.27-7.27,7.27Zm0,0"/></svg>
